X:1
T:The Songs of the Reaper
T:William Anson Spencer, 1886
T:The Songs of the Reaper
T:Public Domain
T:Public Domain
T:Public Domain
C:William Anson Spencer, 1886
Z:Public Domain
%%score ( 1 2 ) ( 3 4 )
L:1/8
M:6/8
K:G
V:1 treble 
V:2 treble 
V:3 bass 
V:4 bass 
V:1
 D | [DB]>[DB][DB] [Ec][DB][DA] | [EG]>[EG][EG] [EA][EG][CE] | [B,D]>[B,D][B,D] [B,G][DG][B,G] | %4
w: 1.~The|I have scat- tered in spring-|time with weep- ing, And wa-|tered with tears and with dews|
w: 2.~An-|ther may reap what in spring-|time I’ve plant- ed, An- o-|ther re- joice in the fruit|
w: 3.~The|will have choked and the sum-|mers suns blast- ed The most|of the seed which in spring-|
 [DB][DA][^CG] [DA]2 D | [DB]>[DB][DB] [Ec][DB][DA] | [EG]>[EG][EG] [EA][EG][CE] | %7
w: from on high; An- o-|may shout when the har- vest-|er’s reap- ing, Shall ga- ther|
w: of my pain, Not know-|my tears when in sum- mer|I faint- ed While toiling sad-|
w: time I’ve sown; But~the Lord|has watched while my wear- y|toil last- ed Will give me|
 [B,D]>[B,D][B,D] [CF][CE][CD] | [B,G][DB][CA] [B,G]3 ||"^Refrain" [Gd]>[Gd][Gd] [Ge][Gd](B/A/) | %10
w: my grain in the “sweet by|and by.” * *||
w: heart- ed in the sun- shine|and rain. O- ver|and o- ver, yes, deep- er *|
w: a har- vest for what I|have done. * *||
 [EG]>[EG][EG] [EA][EG][CE] | [B,D]>[B,D][B,D] [B,G][DG][B,G] | [DB][DA][^CG] [DA]2 [GB]/[Gd]/ | %13
w: |||
w: deep- er My heart is pierced|through with life’s sor- row- ing|cry, But the tears of the|
w: |||
 [Gd]>[Gd][Gd] [Ge][Gd](B/A/) | [EG]>[EG][EG] [EA][EG][CE] | [B,D]>[B,D][B,D] [CF][CE][CD] | %16
w: |||
w: sow- er and songs of the *|er Shall min- gle to- ge-|ther in joy by and by.|
w: |||
 [B,G][DB][CA] [B,G]2 [GB]/[Ac]/ | [Bd]4 [ce][Bd] | [GB]4 [FA][GB] | [Ac]4 [Bd][FA] | %20
w: ||||
w: By and by, by and by,|By and by,|by and by,|Yes, the tears|
w: ||||
 [GB]4 z [GB]/[Ac]<[Gd][Gd]/[Gd][Ge][Gd](B/A/) | [EG]>[EG][EG] [EA][EG][CE] | %22
w: ||
w: of the sow- er and songs of the reap- *|Shall min- gle to- ge- ther|
w: ||
 [B,D]>[B,D][B,D] [CF][CE][CD] | [B,G][DB][CA] [B,G]2 |] %24
w: ||
w: in joy by and by. *||
w: ||
V:2
 D | x6 | x6 | x6 | x5 D | x6 | x6 | x6 | x6 || x5 D | x6 | x6 | x6 | x5 D | x6 | x6 | x6 | x6 | %18
w: seed||||ther||||||||||||||
w: o-||||ing|||||and||||reap-|||||
w: thorns||||who||||||||||||||
 x6 | x6 | x11 D | x6 | x6 | x5 |] %24
w: ||||||
w: ||er||||
w: ||||||
V:3
 D, | [G,,G,]>[G,,G,][G,,G,] [G,,G,][G,,G,][B,,G,] | [C,G,]>[C,G,][C,G,] [C,G,][C,G,][C,G,] | %3
w: ~|~ ~ ~ ~ ~ ~|~ ~ ~ ~ ~ ~|
 [G,,G,]>[G,,G,][G,,G,] [G,,G,][B,,G,][D,G,] | G,[F,A,][E,A,] [D,F,]2 D, | %5
w: ~ ~ ~ ~ ~ ~|~ ~ ~ ~ ~|
 [G,,G,]>[G,,G,][G,,G,] [G,,G,][G,,G,][B,,G,] | [C,G,]>[C,G,][C,G,] [C,G,][C,G,][C,G,] | %7
w: ~ ~ ~ ~ ~ ~|~ ~ ~ ~ ~ ~|
 [G,,G,]>[G,,G,][G,,G,] [D,A,][D,A,][D,A,] | [D,G,][D,G,][D,F,] [G,,G,]3 || %9
w: ~ ~ ~ ~ ~ ~|~ * * *|
 [G,B,]>[G,B,][G,B,] [G,C][G,B,]G, | [C,G,]>[C,G,][C,G,] [C,G,][C,G,][C,G,] | %11
w: ||
 [G,,G,]>[G,,G,][G,,G,] [G,,G,][B,,G,][D,G,] | G,[F,A,][E,A,] [D,F,]2 [D,G,]/[D,A,]/ | %13
w: ||
 [G,B,]>[G,B,][G,B,] [G,C][G,B,]G, | [C,G,]>[C,G,][C,G,] [C,G,][C,G,][C,G,] | %15
w: ||
 [G,,G,]>[G,,G,][G,,G,] [D,A,][D,A,][D,A,] | [D,G,][D,G,][D,F,] [G,,G,]2 z | %17
w: ||
 z ([G,,G,][G,,G,] [G,,G,]) z2 | z ([G,D][G,D] [G,D]) z2 | z ([D,D][D,D] [D,D]) z2 | %20
w: |||
 z ([G,D][G,D] [G,D]) z [G,D]/[G,D]<[G,B,][G,B,]/[G,B,][G,C][G,B,]G, | %21
w: |
 [C,G,]>[C,G,][C,G,] [C,G,][C,G,][C,G,] | [G,,G,]>[G,,G,][G,,G,] [D,A,][D,A,][D,A,] | %23
w: ||
 [D,G,][D,G,][D,F,] [G,,G,]2 |] %24
w: |
V:4
 D, | x6 | x6 | x6 | G, x3 D, x | x6 | x6 | x6 | x6 || x5 G, | x6 | x6 | G, x5 | x5 G, | x6 | x6 | %16
w: ~||||~ ~||||||||||||
 x6 | x6 | x6 | x6 | x11 G, | x6 | x6 | x5 |] %24
w: ||||||||

